packages/assets/application-icons/08.Percentage.svg

<?xml version="1.0" encoding="UTF-8"?>
<svg width="24px" height="24px" viewBox="0 0 24 24" version="1.1" xmlns="http://www.w3.org/2000/svg" xmlns:xlink="http://www.w3.org/1999/xlink">
    <title>08.Percentage</title>
    <g id="Page-1" stroke="none" stroke-width="1" fill="none" fill-rule="evenodd">
        <g id="Artboard" transform="translate(-100.000000, -135.000000)" fill="#000000" fill-rule="nonzero">
            <g id="08.Percentage" transform="translate(100.000000, 135.000000)">
                <path d="M17.1679936,13.08 C19.346941,13.08 21.1279936,14.8610526 21.1279936,17.04 C21.1279936,19.2189474 19.346941,21 17.1679936,21 C14.9890463,21 13.2079936,19.2189474 13.2079936,17.04 C13.2079936,14.8610526 14.9890463,13.08 17.1679936,13.08 Z M19.0437831,3.36 C19.5174673,2.88631579 20.2943094,2.88631579 20.7679936,3.36 C21.2416778,3.83368421 21.2416778,4.61052632 20.7490463,5.08421053 L20.7490463,5.08421053 L5.19325679,20.64 C4.96588837,20.8863158 4.6437831,21 4.34062521,21 C4.03746731,21 3.73430942,20.8863158 3.48799363,20.64 C3.01430942,20.1663158 3.01430942,19.3894737 3.48799363,18.9157895 L3.48799363,18.9157895 Z M17.1679936,15.5242105 C16.3343094,15.5242105 15.6522042,16.2063158 15.6522042,17.04 C15.6522042,17.8736842 16.3343094,18.5557895 17.1679936,18.5557895 C18.0016778,18.5557895 18.6837831,17.8736842 18.6837831,17.04 C18.6837831,16.2063158 18.0016778,15.5242105 17.1679936,15.5242105 Z M7.08799363,3 C9.266941,3 11.0479936,4.78105263 11.0479936,6.96 C11.0479936,9.13894737 9.266941,10.92 7.08799363,10.92 C4.90904626,10.92 3.12799363,9.13894737 3.12799363,6.96 C3.12799363,4.78105263 4.90904626,3 7.08799363,3 Z M7.08799363,5.44421053 C6.25430942,5.44421053 5.57220416,6.12631579 5.57220416,6.96 C5.57220416,7.79368421 6.25430942,8.47578947 7.08799363,8.47578947 C7.92167784,8.47578947 8.6037831,7.79368421 8.6037831,6.96 C8.6037831,6.12631579 7.92167784,5.44421053 7.08799363,5.44421053 Z" id="Percentage"></path>
            </g>
        </g>
    </g>
</svg>

<svg width="24" height="24" viewBox="0 0 24 24" xmlns="http://www.w3.org/2000/svg"><path d="M17.168 13.08a3.97 3.97 0 0 1 3.96 3.96 3.97 3.97 0 0 1-3.96 3.96 3.97 3.97 0 0 1-3.96-3.96 3.97 3.97 0 0 1 3.96-3.96Zm1.876-9.72a1.224 1.224 0 0 1 1.724 0c.474.474.474 1.25-.019 1.724L5.193 20.64a1.192 1.192 0 0 1-1.705 0 1.224 1.224 0 0 1 0-1.724Zm-1.876 12.164a1.52 1.52 0 0 0-1.516 1.516 1.52 1.52 0 0 0 1.516 1.516 1.52 1.52 0 0 0 1.516-1.516 1.52 1.52 0 0 0-1.516-1.516ZM7.088 3a3.97 3.97 0 0 1 3.96 3.96 3.97 3.97 0 0 1-3.96 3.96 3.97 3.97 0 0 1-3.96-3.96A3.97 3.97 0 0 1 7.088 3Zm0 2.444A1.52 1.52 0 0 0 5.572 6.96a1.52 1.52 0 0 0 1.516 1.516A1.52 1.52 0 0 0 8.604 6.96a1.52 1.52 0 0 0-1.516-1.516Z" fill="#000" fill-rule="nonzero"/></svg>
